X:25
T:Smash the windows
R:Jig
M:6/8
L:1/8
Z:Steve Mansfield
K:D
A | DED F2A | d2f ecA | G2B F2A | E2F GFE | DED F2A | 
d2f ecA | Bgf edc | d3 d2 :| a | a2f d2e | f2g agf | g2e c2d | 
e2f gfe | f2d g2e | a2f bag | fed cde | d3 d2a | agf fed | Adf afd | 
gfe ecA | Ace gfe | fed gfe | agf bag | fed cde | d3 d2 ||
<end>
<start>
